X:201
T:Pavervo Mary
Z: id:dc-reel-339
M:C
L:1/8
K:A Major
(3def|!
g3 gfed|cBcd efed|cdgd BdcB|AecA GED2|]!
c2A2 ceAe|c2cc Ac|BGBd cAGE|F2D2 Df d4|]!